X:1
T:Jacob Handl (1551-1591)
%%score [ 1 2 3 ]
L:1/8
Q:1/4=80
M:4/4
K:G
V:1 treble nm="Soprano I" snm="S I"
V:2 treble nm="Soprano II" snm="S II"
V:3 treble nm="Alto" snm="A"
V:1
!p!"^Benedictus" d4 d2 c2 | B2 B4 A2 | G2 G2 G2 F2- | F2 E2 D2 B2 |[M:4/4] A2 d2 d2 c2 | %5
w: Be- ne- di-|ctus, qui ve-|nit, be- ne- di\-|* ctus, qui ve-|nit, be- ne- di-|
 B2 A2 G2 F2 | A2 A4 G2 | !courtesy!^F2 G2 A4 | B4 z ABc | d d2 c c2 z D | EF G2 F2 E2 | %11
w: ctus, qui ve- nit|be- ne- di-|ctus, qui ve-|nit in no- mi-|ne Do- mi- ni, in|no- mi- ne Do- mi-|
 D A2 B =c d2 G | AB c2 dd (cB/A/ | G)!courtesy!^FGA B G2 F | %14
w: ni, in no- mi- ne, in|no- mi- ne Do- mi- ni, * *|* in no- mi- ne Do- mi-|
[Q:1/4=76] G4[Q:1/4=72] E2[Q:1/4=69] e2 |[Q:1/4=68] d8 |] %16
w: ni, Do- mi-|ni.|
V:2
 z8 | z2!p! d4 d2 | c2 B2 B2 A2 | A4 G2 G2- |[M:4/4] G2 F2 E2 E2 | G2 D2 z2 d2 | d2 c2 B4 | %7
w: |Be- ne-|di- ctus, qui ve-|nit, be- ne\-|* di- ctus, qui|ve- nit, be-|ne- di- ctus,|
 A2 (G2- GF- F2) | GDEF G F2 E | DABc dBcd | G d2 e d d2 ^c | d4 z AGA | d2 G2 ABcd | ed c2 B2 A2 | %14
w: qui ve\- * * *|nit in no- mi- ne Do- mi-|ni, in no- mi- ne Do- mi- ni,|in no- mi- ne Do- mi-|ni, in no- mi-|ne, in no- mi- ne, in|no- mi- ne Do- mi-|
 GD E>F G G2 c | B8 |] %16
w: ni, in no- mi- ne Do- mi-|ni.|
V:3
 z8 |!p! G4 G2 F2 | E4 D4 | D2 C2 B,2 G,2 |[M:4/4] D4 G2 G2 | G2 F2 E2 D2 | (=F4 G4) | D2 E2 D4 | %8
w: |Be- ne- di-|ctus, be-|ne- di- ctus, qui|ve- nit, be-|ne- di- ctus, qui|ve\- *|nit, qui ve-|
 G,2 z D EF G2 | F2 E2 DG,A,B, | CB,B,C D2 EE | F2 D2 EF G2 | =F2 E2 DG,A,B, | %13
w: nit in no- mi- ne|Do- mi- ni, in no- mi-|ne, in no- mi- ne Do- mi-|ni, in no- mi- ne|Do- mi- ni, in no- mi-|
 CDE!courtesy!^F G2 DD | G,B, C>D E C2 C | G8 |] %16
w: ne, in no- mi- ne Do- mi-|ni, in no- mi- ne Do- mi-|ni.|

